!!!OTL: Zhenzhen chunfeng chuiyuxiang
!!!ARE: Asia, China, Fujian Fuan
!! II, 561
!!!SCT: C2196
!!!YEM: Copyright 1995, estate of Helmut Schaffrath.
**kern
*ICvox
*Ivox
!! Mixed meters:  3/4; 4/4
*M4/4
*k[b-e-]
*B-:
{8cc
8cc
8dd
8b-
4r
=1
8b-
8dd
8dd
4.cc}
=2
{8cc
8cc
8g
8g
8cc
4.b-
=3
*M3/4
8b-
8g
8f
4.g}
=4
*M4/4
{8b-
8cc
8dd
8dd
8cc
8dd
4cc
=5
*M3/4
8cc
8dd
8cc
4.cc}
=6
*M4/4
{8g
8g
8cc
8cc
8cc
4.b-
=7
8g
16cc
16b-
8g
4.g}
==
!!!AGN: Shange, YÅge
!!!AMT: irregular
!!!AIN: vox
!!!EED: Helmut Schaffrath
!!!EEV: 1.0
*-
